X:1
T:Title
%%score [ 1 [ 2 3 ] 4 ]
L:1/8
Q:1/4=120
M:2/2
K:F
V:1 treble nm="Soprano" snm="S"
V:2 treble-8 nm="Tenor 1" snm="T 1"
V:3 treble-8 nm="Tenor 2" snm="T 2"
V:4 bass nm="Bass" snm="B"
V:1
 z4 F4 | G2 G2 A4 | z2 F2 G2 G2 | A2 F2 A2 c2 | B2 A4 GF | E2 c2 G2 c2 | B2 A2 F2 G2 | %7
w: Si|tu vou- lois|si tu vou-|lois ac- cor- der|la de- man- *|de que plus- ieurs|fois ie tay _|
 A3 G AB c2- | cB A2 G2 B2- | BAGF EC F2- | F2 E2 F4- | F4 z2 F2 | B4 A4 | G2 G2 G2 G2 | E2 F2 D4 | %15
w: faict _ _ _ hum-|||* ble- ment.|_ De|re- te-|nir mon cueur a-|ta com- man-|
 C8 | z2 G2 A2 F2 | c3 B A2 G2 | F6 E2 | D2 D2 E2 G2- | GF F4 E2 | FEDC D4 | C8 | z2 G2 A2 F2 | %24
w: de|se me se-|roit _ _ heu-|reulx con-|ten- te- * *|||ment,|se me se-|
 c3 B A2 G2 | F6 E2 | D2 D2 E2 G2- | GF F4 E2 | F8 |] %29
w: roit _ _ heu-|reulx con-|ten- te- * *||ment.|
V:2
 f4 d4- | d2 e2 f2 c2 | d2 d2 e3 d | c2 d2 c2 c2 | F2 A4 B2 | c2 e3 def | g2 f4 e2 | f2 f2 c2 f2 | %8
w: Si tu|_ vou- lois si|tu vou- lois _|_ ac- cor- der|la de- man-|||de que plus- ieurs|
 _e2 c2 e2 f2 | d4 c2 B2 | c4 z2 c2 | d2 c2 d2 d2 | d2 g2 e2 f2 | d4 e4 | z2 c4 B2 | A4 G2 G2 | %16
w: fois ie tay faict|hum- * ble-|ment. De|re- te- nir mon|cueur a- ta com-|man- de|se me|se- roit heu-|
 A2 B2 c3 B | A2 G2 F2 c2- | c2 B2 A2 G2- | G2 F2 c2 d2 | c4 c3 B | AG c4 B2 | A4 G2 G2 | %23
w: reulx con- ten- *|* te- ment, heu-|* reulx con- ten-||te- ment, _|_ _ se me|se- roit heu-|
 A2 B2 c3 B | A2 G2 F2 c2- | c2 B2 A2 G2- | G2 F2 c2 d2 | c8 | c8 |] %29
w: reulx con- ten- *|* te- ment, heu-|* reulx con- ten-||te-|ment.|
V:3
 z4 B4 | G2 G2 F2 A2- | A2 B2 G2 cB | AG B2 A2 A2 | B2 c2 F4 | G4 z2 c2 | G2 c2 B2 B2 | %7
w: Si|tu vou- lois ac-|* cor- der la _|_ _ _ de- man-||de que|plus- ieurs fois ie|
 c3 B AG A2- | AGAB c2 d2- | dcBA G2 F2 | G2 G2 F4 | z2 F2 B2 A2 | G2 d3 c c2- | %13
w: tay _ _ _ _|_ _ _ _ _ faict|_ _ _ _ hum- *|* ble- ment|de re- te-|nir mon cueur _|
"^-natural" c2 B2 c2 G2 | A2 F2 G4 | E2 F4 ED | EF G2 C2 F2- | F2 E2 F2 G2 | A2 F2 c4- | %19
w: _ _ _ a|ta com- man-|||* * de ce|me se roit|
 c2 B2 G2 B2- | B2 A2 G2 G2 | F2 A2 G4 | E2 F4 ED | EF G2 C2 F2- | F2 E2 F2 G2 | A2 F2 c4- | %26
w: _ heu- reulx con-|* * ten- te-||||* * ment ce|me se- roit|
 c2 B2 G2 B2- | B2 A2 G2 G2 | F8 |] %29
w: _ heu- reulx con-|* * ten- te-|ment.|
V:4
 z8 | z4 F,4 | D,2 D,2 C,D,E,D,/E,/ | F,2 B,,2 F,3 E, | D,2 C,2 D,4 | C,8 | z2 F,2 D,2 G,2 | %7
w: |Si|tu vou- lois _ _ _ _|_ ac- cor- der|la de- man-|de|que plus- ieurs|
 F,4 z2 F,2 | C,2 F,2 _E,2 D,2 | B,,2 B,,2 C,2 D,2 | C,4 z2 F,2 | B,2 A,2 G,2 D,2 | %12
w: fois que|plus- ieurs fois ie|t'ay faict hum- ble-|ment de|re- te- nir mon|
 G,2 G,2 A,2 F,2 | G,4 C,4 | z4 z2 G,,2 | A,,2 F,,2 C,3 B,, | A,,2 G,,2 F,,3 G,, | %17
w: cueur a ta com-|man- de|ce|me se- roit _|_ heu- reulx _|
 A,,B,, C,2 D,2 E,2 | F,2 D,2 C,2 C,2 | G,,2 B,,2 C,2 G,,2 | A,,2 F,,2 C,2 C,2 | F,,4 z2 G,,2 | %22
w: _ _ _ con- ten-|* te- ment ce|me se- roit heu-|reulx con- ten- te-|ment ce|
 A,,2 F,,2 C,3 B,, | A,,2 G,,2 F,,3 G,, | A,,B,, C,2 D,2 E,2 | F,2 D,2 C,2 C,2 | %26
w: me se- roit _|_ heu- reulx _|_ _ _ con- ten-|* te- ment ce|
 G,,2 B,,2 C,2 G,,2 | A,,2 F,,2 C,2 C,2 | F,,8 |] %29
w: me se- roit heu-|reulx con- ten- te-|ment.|

